packages/icons/svg/Fill/book-open.svg

<svg fill="none" height="24" viewBox="0 0 24 24" width="24" xmlns="http://www.w3.org/2000/svg"><path clip-rule="evenodd" d="m19.9386 4.11076c.381-.098.772-.013 1.079.225.307.239.482.599.482.986v11.68604c0 .571-.385 1.069-.938 1.211l-7.562 1.941v-14.26604zm-15.88062-.0003 6.94202 1.783v14.26704l-7.56202-1.942c-.552-.141-.938-.639-.938-1.211v-11.68504c0-.388.176-.747.482-.987.306-.237.699-.32 1.076-.225z" fill="#6b7280" fill-rule="evenodd"/></svg>

<svg width="24" height="24" viewBox="0 0 24 24" fill="none" xmlns="http://www.w3.org/2000/svg">
<g id="Icon/Fill/book-open">
<path id="Mask" fill-rule="evenodd" clip-rule="evenodd" d="M19.9386 4.11089C20.3196 4.01289 20.7106 4.09789 21.0176 4.33589C21.3246 4.57489 21.4996 4.93489 21.4996 5.32189V17.0079C21.4996 17.5789 21.1146 18.0769 20.5616 18.2189L12.9996 20.1599V5.89389L19.9386 4.11089ZM4.058 4.11059L11 5.89359V20.1606L3.438 18.2186C2.886 18.0776 2.5 17.5796 2.5 17.0076V5.32259C2.5 4.93459 2.676 4.57559 2.982 4.33559C3.288 4.09859 3.681 4.01559 4.058 4.11059Z" fill="#000000"/>
</g>
</svg>
